X:1
T:Oh, Who Is At My Bedroom Window
M:4/4
L:1/4
K:G
 d2| B d G2| B2 A G| E D D2| G B d2| e2 B d| A2 d2| B d G2| B2 A G|\
 E D D2| G B d2| A- B c B| G2||
